icons/battery-medium.svg

<svg xmlns="http://www.w3.org/2000/svg" width="24" height="24" viewBox="0 0 24 24">
    <path fill="#3A3A47" fill-rule="evenodd" d="M12.014 2c1.333 0 1.997.667 1.991 2H16c1.333 0 2 .667 2 2v14c0 1.333-.667 2-2 2H8c-1.333 0-2-.667-2-2V6.004C6 4.667 6.668 3.999 8.004 4h2.01c0-1.333.666-2 2-2zM16 6H8v8h8V6z"/>
</svg>

<svg width="24" height="24" viewBox="0 0 24 24" fill="none" xmlns="http://www.w3.org/2000/svg">
<path fill-rule="evenodd" clip-rule="evenodd" d="M8.004 4H10.014C10.014 2.667 10.68 2 12.014 2C13.347 2 14.011 2.667 14.005 4H16C17.333 4 18 4.667 18 6V20C18 21.333 17.333 22 16 22H8C6.667 22 6 21.333 6 20V6.004C6 4.667 6.668 3.999 8.004 4ZM8 6V14H16V6H8Z" fill="#3A3A47"/>
</svg>
